src/assets/images/types/ground.svg

<svg width="512" height="512" viewBox="0 0 512 512" fill="none" xmlns="http://www.w3.org/2000/svg">
<path fill-rule="evenodd" clip-rule="evenodd" d="M112.764 439.754C112.625 439.754 112.528 439.617 112.574 439.486L243.289 70.134C243.318 70.0537 243.394 70 243.479 70H383.021C383.106 70 383.183 70.0541 383.211 70.1349L511.987 439.487C512.032 439.618 511.935 439.754 511.797 439.754H116.692H112.764ZM0.201306 441.199C0.0609122 441.199 -0.0362852 441.059 0.0129607 440.928L97.3526 181.056C97.3821 180.977 97.4571 180.925 97.541 180.925H182.118C182.258 180.925 182.355 181.064 182.307 181.195L88.1823 441.067C88.1535 441.146 88.0779 441.199 87.9932 441.199H0.201306Z" fill="white"/>
</svg>

<svg width="512" height="512" fill="none" xmlns="http://www.w3.org/2000/svg"><path fill-rule="evenodd" clip-rule="evenodd" d="M112.764 439.754a.201.201 0 0 1-.19-.268L243.289 70.134a.202.202 0 0 1 .19-.134h139.542c.085 0 .162.054.19.135l128.776 369.352a.201.201 0 0 1-.19.267H112.764ZM.201 441.199a.2.2 0 0 1-.188-.271l97.34-259.872a.201.201 0 0 1 .188-.131h84.577c.14 0 .237.139.189.27L88.182 441.067a.201.201 0 0 1-.189.132H.201Z" fill="#fff"/></svg>
